!!!!SEGMENT: pl-kk--kk-i-3--050_anonim--ecce-virgo-concipiet.krn
!!!cenid: 15xx:704
!!!COM: Anonim
!!!COM-rismid: pe30004985
!!!CDT:
!!!CNT:
!!!OTL: Ecce virgo concipiet
!!!PDT:
!!!AGN:
!!!SMS-siglum: PL-Kk
!!!SMS-shelfmark: Kk.I.3
!!!SMS-shelfwork: 050 W
!!!SMS-variant:
!!!SMS-altvar:
!!!NIFC-rismid: 1001145547
!!!URL-scan: http://repozytorium.nifc.pl/skany/pl-kk-nut--i-3
!!!ONB-nifc: UWAGA: Discantus (s. 137r-v, skan 0139-0140), Tenor (s. 103r-v, skan 0275-0276), Bassus (s. 131v-132v, skan 0435-0436)
!!!key: d:dor
**kern	**text	**kern	**text	**kern	**text
*part3	*part3	*part2	*part2	*part1	*part1
*staff3	*staff3	*staff2	*staff2	*staff1	*staff1
*Ibass	*	*Itenor	*	*Iempty	*
*I"Bassus	*	*I"Tenore	*	*I"Discantus	*
*I'B	*	*I'T.	*	*I'D	*
*ICvox	*	*ICvox	*	*ICvox	*
*clefF4	*	*clefC4	*	*clefC4	*
*k[]	*	*k[]	*	*k[]	*
*d:	*	*d:	*	*d:	*
*M2/1	*	*M2/1	*	*M2/1	*
*met(C|)	*	*met(C|)	*	*met(C|)	*
=1-	=1-	=1-	=1-	=1-	=1-
*2\right	*	*2\right	*	*2\right	*
*4\right	*	*4\right	*	*4\right	*
1D	Ec-	0r	.	2.D/	Ec-
.	.	.	.	4E/	-ce
*lig	*	*	*	*	*
1D	-ce	.	.	4F/	.
.	.	.	.	4G/	.
.	.	.	.	2.A/	.
=2-	=2-	=2-	=2-	=2-	=2-
1F	.	0r	.	.	.
.	.	.	.	4B/	.
.	.	.	.	4c/	.
.	.	.	.	4d\	.
*Xlig	*	*	*	*	*
2E/	.	.	.	2e\	vir-
2F/	.	.	.	2c/	-go
=3-	=3-	=3-	=3-	=3-	=3-
2D/	.	0r	.	2d\	.
!	!	!	!	!LO:SIC:v:t=custos c	!
2.A\	vir-	.	.	2e\	.
!	!	!	!	!LO:LO:g=original	!
.	.	.	.	2c\	.
4G/	-go	.	.	.	.
4F/	.	.	.	4d\	.
4E/	.	.	.	4e\	.
=4-	=4-	=4-	=4-	=4-	=4-
1D	.	0r	.	2.f\	con-
.	.	.	.	4e\	-ci-
!LO:SIC:v:t=custos C	!	!	!	!	!
2E/	.	.	.	4e\	.
.	.	.	.	4d\	.
!LO:LB:g=original	!	!	!	!	!
2C/	.	.	.	1e\	.
=5-	=5-	=5-	=5-	=5-	=5-
2D/	.	0r	.	.	.
2F\	.	.	.	2.d\	-pi-
1E	.	.	.	.	.
.	.	.	.	4c\	-et
.	.	.	.	4c\	.
.	.	.	.	4B\	.
=6-	=6-	=6-	=6-	=6-	=6-
1D	.	1D	Ec-	1d	.
*	*	*lig	*	*	*
1BB	.	1D	-ce	2r	.
.	.	.	.	2d\	et
=7-	=7-	=7-	=7-	=7-	=7-
!	!	!	!	!LO:SIC:v:t=custos d	!
2AA/	.	1F	.	2c\	.
!	!	!	!	!LO:LB:g=original	!
2FF/	.	.	.	2d\	.
*	*	*Xlig	*	*	*
1C	.	1E	.	4e\	.
.	.	.	.	4d\	.
.	.	.	.	4c\	.
.	.	.	.	4B/	.
=8-	=8-	=8-	=8-	=8-	=8-
1FF	.	1F	vir-	2A/	.
.	.	.	.	2.f\	.
2r	.	1D	-go	.	.
.	.	.	.	4e\	.
2F\	.	.	.	4d\	.
.	.	.	.	4c\	.
=9-	=9-	=9-	=9-	=9-	=9-
*	*	*lig	*	*	*
2D/	.	1D	con-	1d	.
2BB-X/	.	.	.	.	.
2C/	con-	1E	.	2G/	.
!LO:SIC:v:t=custos GG	!	!	!	!	!
2AA/	-ci-	.	.	2A/	.
*	*	*Xlig	*	*	*
!LO:LB:g=original	!	!	!	!	!
=10-	=10-	=10-	=10-	=10-	=10-
*	*	*lig	*	*	*
1GG	.	1G	-ci-	1B	.
4FF/	.	1A	.	4A/	.
4GG/	.	.	.	4B/	.
4AA/	.	.	.	4c/	.
!	!	!	!	!LO:SIC:v:t=custos e	!
4BBny/	.	.	.	4d\	.
*	*	*Xlig	*	*	*
!	!	!	!	!LO:LB:g=original	!
=11-	=11-	=11-	=11-	=11-	=11-
*	*	*	*	*clefC3	*
2C/	.	2G/	.	2e\	.
1D	.	1F	.	1A	.
4C/	.	4E/	.	2B/	.
!	!	!LO:SIC:v:t=custos E	!	!	!
4BB/	.	4D/	.	.	.
!	!	!LO:LB:g=original	!	!	!
=12-	=12-	=12-	=12-	=12-	=12-
2AA/	.	2E/	.	2c/	.
2FF/	.	2F/	.	1d	.
2GG/	.	1E	-pi-	.	.
2AA/	.	.	.	2c/	.
=13-	=13-	=13-	=13-	=13-	=13-
2.A\	.	1D	-et	1d	.
4F\	.	.	.	.	.
*	*	*	*	*lig	*
2G\	.	1r	.	1c	.
!LO:SIC:v:t=custos E	!	!	!	!	!
2A\	.	.	.	.	.
!LO:LB:g=original	!	!	!	!	!
=14-	=14-	=14-	=14-	=14-	=14-
2.E/	-pi-	0r	.	1e	.
4C/	-et	.	.	.	.
*	*	*	*	*Xlig	*
2D/	.	.	.	2d/	.
2E/	.	.	.	2e/	.
=15-	=15-	=15-	=15-	=15-	=15-
2AA/	.	1r	.	1e	.
2C/	.	.	.	.	.
*	*	*lig	*	*	*
1BB	.	1D	et	2r	.
.	.	.	.	1d\	et
=16-	=16-	=16-	=16-	=16-	=16-
1AA	.	1E	.	.	.
.	.	.	.	2c/	pa-
*	*	*Xlig	*	*	*
*	*	*lig	*	*	*
2GG/	.	1G	pa-	2.d/	.
2G\	et	.	.	.	.
.	.	.	.	4B/	.
=17-	=17-	=17-	=17-	=17-	=17-
!	!	!	!	!LO:SIC:v:t=custos d	!
2F/	pa-	1A	.	2c/	.
!	!	!	!	!LO:LB:g=original	!
2D/	.	.	.	2d/	.
*	*	*Xlig	*	*	*
*	*	*lig	*	*	*
2E/	.	1c	.	2c/	.
2F/	.	.	.	2A/	.
=18-	=18-	=18-	=18-	=18-	=18-
2D/	.	1d	.	1B	.
!LO:SIC:v:t=custos F	!	!	!	!	!
1G	.	.	.	.	.
*	*	*Xlig	*	*	*
!LO:LB:g=original	!	!	!	!	!
.	.	1A	.	1c	-ri-
2F\	-ri-	.	.	.	.
=19-	=19-	=19-	=19-	=19-	=19-
*	*	*lig	*	*	*
1G	-et	1G	-ri-	2B/	-et
.	.	.	.	1d	fi-
1D	.	1A	.	.	.
.	.	.	.	4c/	.
.	.	.	.	4B/	.
*	*	*Xlig	*	*	*
=20-	=20-	=20-	=20-	=20-	=20-
2r	.	1A	-et	2c/	.
2D/	fi-	.	.	2d/	.
2E/	-li-	2r	.	2.c/	.
2.F\	-um	1A\	fi-	.	.
.	.	.	.	4B/	.
=21-	=21-	=21-	=21-	=21-	=21-
.	.	.	.	4A/	.
4G\	.	.	.	4G/	.
2A\	.	2A/	-li-	2F/	.
!	!	!LO:SIC:v:t=custos c	!	!LO:SIC:v:t=custos e	!
2G\	.	2B/	.	2E/	.
!	!	!LO:LB:g=original	!	!LO:PB:g=original	!
*	*	*2\right	*	*	*
*	*	*	*	*clefC4	*
2.A\	.	2.c\	.	2.e\	.
=22-	=22-	=22-	=22-	=22-	=22-
.	.	.	.	.	.
4G\	.	4B/	.	4d\	.
2F/	.	1A	.	1d	.
*	*ij	*	*	*	*
1E	fi-	.	.	.	.
.	.	2G/	.	2c/	-lu-
=23-	=23-	=23-	=23-	=23-	=23-
1.D	.	0A	-um	1d	-um
.	.	.	.	2D/	et
2C/	-li-	.	.	2E/	vo-
=24-	=24-	=24-	=24-	=24-	=24-
2BB/	-um	0r	.	2D/	-ca-
*	*Xij	*	*	*	*
!LO:SIC:v:t=custos C	!	!	!	!	!
2AA/	.	.	.	2A/	.
!LO:LB:g=original	!	!	!	!	!
2C/	.	.	.	2G/	.
2D/	.	.	.	1F/	.
=25-	=25-	=25-	=25-	=25-	=25-
1BB	.	0r	.	.	.
.	.	.	.	4E/	.
.	.	.	.	4D/	.
!	!	!	!	!LO:SIC:v:t=custos e	!
1AA	.	.	.	2E/	.
!	!	!	!	!LO:LB:g=original	!
*	*	*	*	*clefC3	*
.	.	.	.	2e\	.
=26-	=26-	=26-	=26-	=26-	=26-
0r	.	1G	et	4d/	.
.	.	.	.	4c/	.
.	.	.	.	4B/	.
.	.	.	.	4A/	.
*	*	*lig	*	*	*
.	.	1B	vo-	4G/	.
.	.	.	.	4F/	.
.	.	.	.	1E/	.
=27-	=27-	=27-	=27-	=27-	=27-
1C	et	1c	.	.	.
.	.	.	.	2e\	.
*	*	*Xlig	*	*	*
*	*	*lig	*	*	*
1D	vo-	1A	-ca-	1d	.
=28-	=28-	=28-	=28-	=28-	=28-
4E/	-ca-	1G	.	1B	.
4F/	.	.	.	.	.
4G\	.	.	.	.	.
4E/	.	.	.	.	.
*	*	*Xlig	*	*	*
*	*	*lig	*	*	*
4F\	.	1c	-bi-	2A/	.
4E/	.	.	.	.	.
4D/	.	.	.	1G/	.
4C/	.	.	.	.	.
=29-	=29-	=29-	=29-	=29-	=29-
1D	.	1A	.	.	.
.	.	.	.	2F/	.
*	*	*Xlig	*	*	*
1C	.	1c	.	1.G	.
=30-	=30-	=30-	=30-	=30-	=30-
!LO:SIC:v:t=custos C	!	!	!	!	!
*	*	*lig	*	*	*
2BB/	.	1G	.	.	.
!LO:LB:g=original	!	!	!	!	!
2.C/	.	.	.	1g	-ca-
.	.	1A	.	.	.
4AA/	.	.	.	.	.
1A\	-bi-	.	.	4f\	.
!	!	!	!	!LO:SIC:v:t=custos d	!
.	.	.	.	4e\	.
*	*	*Xlig	*	*	*
!	!	!	!	!LO:LB:g=original	!
*	*	*lig	*	*clefC4	*
=31-	=31-	=31-	=31-	=31-	=31-
.	.	1B	.	1d	-bi-
2G\	-tur	.	.	.	.
*	*	*col	*	*	*
1A	no-	2.c\	.	1c	-tur
*	*	*Xlig	*	*	*
!	!	!LO:SIC:v:t=custos A	!	!	!
.	.	4B/	.	.	.
*	*	*Xcol	*	*	*
!	!	!LO:LB:g=original	!	!	!
=32-	=32-	=32-	=32-	=32-	=32-
1D	-men	2A/	.	1r	.
.	.	4G/	.	.	.
.	.	4F/	.	.	.
2D/	.	2A/	.	2r	.
2E/	.	1G/	.	1c\	no-
=33-	=33-	=33-	=33-	=33-	=33-
2F\	.	.	.	.	.
2BB/	.	1F	.	2d\	.
1C	.	.	.	1c	-men
.	.	2E/	-tur	.	.
=34-	=34-	=34-	=34-	=34-	=34-
2.FF/	.	1F	.	2.A/	e-
4GG/	.	.	.	4B/	.
2AA/	.	2r	.	2c\	.
2.BB/	.	1F/	no-	2.F/	.
=35-	=35-	=35-	=35-	=35-	=35-
.	.	.	.	.	.
4AA/	.	.	.	4D/	.
2GG/	.	2G/	-men	2E/	.
!LO:SIC:v:t=custos F	!	!	!	!	!
*	*	*lig	*	*	*
2FF/	.	1A	e-	1F	.
!LO:LB:g=original	!	!	!	!	!
1F\	.	.	.	.	.
=36-	=36-	=36-	=36-	=36-	=36-
.	.	1B	.	2D/	.
2E/	e-	.	.	1G	.
*	*	*Xlig	*	*	*
1F	-ius	1A	-ius	.	.
!	!	!	!	!LO:SIC:v:t=custos E	!
.	.	.	.	1F/	.
!	!	!	!	!LO:LB:g=original	!
=37-	=37-	=37-	=37-	=37-	=37-
*	*	*lig	*	*	*
1C	.	1G	.	.	.
.	.	.	.	2E/	.
2r	.	1A	.	2F/	-ius
2AA/	E-	.	.	1f\	.
*	*	*Xlig	*	*	*
=38-	=38-	=38-	=38-	=38-	=38-
2BB/	-ma-	1G	.	.	.
2C/	.	.	.	2e\	.
2.D/	.	2r	.	2.f\	.
!	!	!LO:SIC:v:t=custos G	!	!	!
.	.	1F/	E	.	.
4C/	.	.	.	4e\	.
=39-	=39-	=39-	=39-	=39-	=39-
4BB/	.	.	.	4d\	.
4AA/	.	.	.	4c\	.
!	!	!LO:PB:g=original	!	!	!
2GG/	.	2G/	.	2B/	.
2AA/	.	2E/	.	4A/	.
.	.	.	.	4G/	.
2FF/	.	2F/	.	1c\	.
=40-	=40-	=40-	=40-	=40-	=40-
1GG	.	1D	.	.	.
.	.	.	.	2B/	E-
!LO:SIC:v:t=custos F	!	!	!	!	!
2FF/	.	2r	.	2c\	-ma-
!LO:PB:g=original	!	!	!	!	!
1F\	.	2D/	.	1A\	.
=41-	=41-	=41-	=41-	=41-	=41-
.	.	2F/	.	.	.
2E/	.	2G/	.	2B\	.
2C/	.	2.A/	.	2c\	.
1D\	.	.	.	2.A/	.
.	.	4G/	.	.	.
=42-	=42-	=42-	=42-	=42-	=42-
.	.	2F/	.	.	.
!	!	!	!	!LO:SIC:v:t=custos c	!
.	.	.	.	4B/	.
!	!	!	!	!LO:LB:g=original	!
2C/	.	2E/	.	2c\	.
2F/	.	2D/	.	2d\	.
2E/	.	2C/	.	2.e\	.
=43-	=43-	=43-	=43-	=43-	=43-
1D	.	2D/	.	.	.
.	.	.	.	4A/	.
.	.	2F/	.	1d	.
1AA	-nu-	1E	.	.	.
.	.	.	.	2c\	.
=44-	=44-	=44-	=44-	=44-	=44-
00D;	-el	00D;<	.	1.d	.
.	.	.	.	4c/	.
.	.	.	.	4B/	-nu-
=45-	=45-	=45-	=45-	=45-	=45-
!	!	!	!	!LO:N:vis=00	!
.	-el	.	.	0A;;	-el
==	==	==	==	==	==
*-	*-	*-	*-	*-	*-
!!!RDF**kern: < = below
!!!system-decoration: [(s1,s2,s3)]
!!!ENC: Andrzej Gręziak
!!!END: 2021-01-20
!!!ENC: Urszula Świątek
!!!END: 2022-01-25
